X:1262
T:Conscription
O:england
C:Trad., arr. J. Goodacre
S:Hamish Moore's School of Piping
M:4/4
L:1/8
K:G
DEF|G3A B3A|G6AB|c2A2 d3c|BcBA GDEF|
G3A B3A|G6AB|c2A2 d2FA|G4 -GDEF||
DEF|d3c B3A|G2c4AB|c2A2 d3c|BcBA GABc|
d3c B3A|G2c4AB|c2A2 d2FA|G4 -GABc||


